X:1
T:Title
%%score { 1 | ( 2 3 ) }
L:1/8
M:6/8
K:Bb
V:1 treble nm="Grand Piano"
V:2 bass 
V:3 bass 
V:1
 z3 z2[Q:1/4=81] [B,D]/[CE]/ | [DF]>[DG][DF] FGA | B3- B2 B/B/ | d>cB [=Ed]>[Ec][EG] | %4
 c3- c2 c/e/ | [Fd]>[Ec][DB] [Gc]>[GB][FA] |[M:5/8] G-G- G3 |[M:1/8] A/B/ |[M:3/4] F>F Fc- c/B/A | %9
[M:5/8] [B,DB]-[B,DB]- [B,DB]3 |[M:1/8] F/F/ |[M:3/4] c>c cA- A/G/F | %12
 [Dd]>[Fd] [Fd] [DB]2 [DB]/[DB]/ | BB BB- B/c/B | B3 A2 F/F/ | [Fd]>[Ec] [DB]e- e/d/c | %16
 d>d c B2 [FB]/[FB]/ | F>F Fc- c/B/A |[M:5/8] [DB]-[DB]- [DB]3 |] %19
V:2
 z3 z2 [B,,F,]/[B,,F,]/ | [B,,B,]>[B,,B,][B,,B,] [F,A,E][F,B,E][F,CE] | %2
 [G,B,D]3- [G,B,D]2 [G,B,D]/[G,B,D]/ | [G,B,G]>[G,B,G][G,B,G][K:bass] [C,B,]>[C,G,][C,B,] | %4
 [F,A,F]3- [F,A,F]2 [F,A,F]/[F,CF]/ | [B,,B,]>[B,,F,][B,,B,] [E,B,]>[E,B,][E,B,] | %6
[M:5/8] [E,B,E]-[E,B,E]- [E,B,E]3 |[M:1/8] [=E,G,_D]/[E,G,D]/ | %8
[M:3/4] [F,B,D]>[F,B,D] [F,B,D][F,A,E]- [F,A,E]/[F,B,E]/[F,CE] |[M:5/8] B,,-B,,- B,,3 | %10
[M:1/8] F,/F,/ |[M:3/4] [F,A,E]>[F,A,E] [F,A,E][F,CE]- [F,CE]/[F,B,E]/[F,A,E] | %12
 [B,,B,]>[B,,B,] [B,,B,] [B,,B,]2 [B,,F,]/[B,,B,]/ | %13
 [G,B,D][G,B,D] [G,B,D][G,C=E]- [G,CE]/[G,CE]/[G,CE] | D4 z2 | %15
 [B,,B,]>[B,,B,] [B,,B,][K:treble][F,CF]- [F,CF]/[F,B,F]/[F,A,F] | %16
 [B,DF]>[B,F][K:bass] [F,A,E] [G,B,D]2 [D,B,]/[D,B,]/ | %17
 [F,B,D]>[F,B,D] [F,B,D][F,A,E]- [F,A,E]/[F,B,E]/[F,CE] |[M:5/8] [B,,B,]-[B,,B,]- [B,,B,]3 |] %19
V:3
 x6 | x6 | x6 | x3[K:bass] x3 | x6 | x6 |[M:5/8] x5 |[M:1/8] x |[M:3/4] x6 |[M:5/8] x5 |[M:1/8] x | %11
[M:3/4] x6 | x6 | x6 | [F,F]3- [F,CF]2 [F,A,]/[F,A,E]/ | x3[K:treble] x3 | x2[K:bass] x4 | x6 | %18
[M:5/8] x5 |] %19

